X:192
T:Mrs. Kinney's
R:waltz
Z:id:hn-waltz-2
M:3/4
K:D
de|f2 fe dc|d4 FG|A2 G2 E2|A,2 C2 E2|g2 f2 e2|d2 c2 B2|A2 AB AG|F2 G2 A2|
f2 fe dc|d4 FG|A2 G2 E2|A,2 C2 E2|g2 f2 e2|d2 c2 B2|A2 B2 c2|d4:|
cB|:A2 fe f2|A2 fe f2|A2 fe f2|ag ba fd|A2 ed e2|A2 ed e2|1 A2 ed e2|ab ag fe:|
[2 ab ag fe|d4|:FA|d4 ed|c4 dc|B2 G2 B2|A2 F2 D2|d4 cB|c4 BA|A2 G2 E2|D4:|

